Newaita-dark/mimetypes/22/audio-x-playlist.svg

<svg height="22pt" viewBox="0 0 22 22" width="22pt" xmlns="http://www.w3.org/2000/svg" xmlns:xlink="http://www.w3.org/1999/xlink"><linearGradient id="a"><stop offset="0" stop-opacity=".27451"/><stop offset="1" stop-opacity="0"/></linearGradient><linearGradient id="b" gradientUnits="userSpaceOnUse" x1="11.3699116" x2="11.3699116" xlink:href="#a" y1="19.27333515" y2="20.18292834324"/><linearGradient id="c"><stop offset="0" stop-opacity=".313725"/><stop offset=".222222" stop-opacity=".27451"/><stop offset="1" stop-opacity="0"/></linearGradient><radialGradient id="d" cx="450.90894" cy="189.57936" gradientTransform="matrix(.00000012 -.0537161 -.0966889 -.00000007 34.020641 43.721792)" gradientUnits="userSpaceOnUse" r="21.166656" xlink:href="#c"/><radialGradient id="e" cx="450.90894" cy="189.57936" gradientTransform="matrix(-.00000012 .0537161 .0966889 .00000007 -12.645223 -5.175142)" gradientUnits="userSpaceOnUse" r="21.166656" xlink:href="#c"/><radialGradient id="f" cx="450.90894" cy="189.57936" gradientTransform="matrix(-.00000012 -.0537161 .0966889 -.00000007 -12.645223 43.721792)" gradientUnits="userSpaceOnUse" r="21.166656" xlink:href="#c"/><radialGradient id="g" cx="450.90894" cy="189.57936" gradientTransform="matrix(.00000012 .0537161 -.0966889 .00000007 34.020639 -5.175143)" gradientUnits="userSpaceOnUse" r="21.166656" xlink:href="#c"/><linearGradient id="h" gradientUnits="userSpaceOnUse" x1="10.687706" x2="10.687706" y1="19.27332442218" y2="1.99107551259"><stop offset="0" stop-color="#b0bec5"/><stop offset="1" stop-color="#cfd8dc"/></linearGradient><linearGradient id="i" gradientTransform="matrix(.0205522 0 0 .0752024 10.341666 -11.361824)" gradientUnits="userSpaceOnUse" x1="249.18942" x2="249.18942" xlink:href="#a" y1="233.5" y2="254.66669"/><linearGradient id="j"><stop offset="0" stop-color="#78909c"/><stop offset="1" stop-color="#90a4ae"/></linearGradient><linearGradient id="k" gradientUnits="userSpaceOnUse" x1="14.55348851351" x2="14.55348851351" xlink:href="#j" y1="19.27333515" y2="1.99106705676"/><linearGradient id="l" gradientUnits="userSpaceOnUse" x1="254" x2="254" xlink:href="#j" y1="233.5" y2="-168.66667"/><linearGradient id="m" gradientUnits="userSpaceOnUse" x1="305.56444047967" x2="305.56444047967" xlink:href="#j" y1="165.42758280167" y2="-1.8942624185"/><path d="m5.457031 19.273438h10.460938v.910156h-10.460938zm0 0" fill="url(#b)"/><path d="m15.917969 19.273438h1.820312v-.910157h-1.820312zm0 0" fill="url(#d)"/><path d="m5.457031 19.273438h-1.820312v.910156h1.820312zm0 0" fill="url(#e)"/><path d="m5.457031 19.273438h-1.820312v-.910157h1.820312zm0 0" fill="url(#f)"/><path d="m15.917969 19.273438h1.820312v.910156h-1.820312zm0 0" fill="url(#g)"/><path d="m12.746094 1.992188h-8.199219c-.503906 0-.910156.40625-.910156.910156v15.460937c0 .503907.40625.910157.910156.910157h12.28125c.503906 0 .910156-.40625.910156-.910157v-11.382812zm0 0" fill="url(#h)"/><path d="m3.636719 18.011719v.351562c0 .503907.40625.910157.910156.910157h12.28125c.503906 0 .910156-.40625.910156-.910157v-.351562c0 .503906-.40625.910156-.910156.910156h-12.28125c-.503906 0-.910156-.40625-.910156-.910156zm0 0" fill-opacity=".235294"/><path d="m12.734375 6.199219h4.320313l.683593.679687v.910156h-5.003906zm0 0" fill="url(#i)"/><path d="m4.546875 1.992188c-.503906 0-.910156.40625-.910156.910156v.339844c0-.503907.40625-.910157.910156-.910157h8.199219l4.992187 4.988281v-.339843l-4.992187-4.988281zm0 0" fill="#fff" fill-opacity=".392157"/><path d="m17.738281 6.980469-4.992187-4.988281v4.078124c0 .503907.40625.910157.910156.910157zm0 0" fill="url(#k)"/><path d="m12.746094 5.855469v.214843c0 .503907.40625.910157.910156.910157h4.082031l-.214843-.214844h-3.867188c-.503906 0-.910156-.40625-.910156-.910156zm0 0" fill-opacity=".235294"/><path d="m12.746094 1.992188v.339843l4.648437 4.648438h.34375zm0 0" fill="#fff" fill-opacity=".392157"/><path d="m12.746094 1.925781c-.035156 0-.0625.03125-.0625.066407v4.078124c0 .539063.433594.972657.972656.972657h4.082031c.023438 0 .046875-.015625.058594-.039063.007813-.023437.003906-.050781-.015625-.070312l-4.988281-4.988282c-.011719-.011718-.027344-.019531-.046875-.019531zm.066406.222657 4.769531 4.765624h-3.925781c-.46875 0-.84375-.375-.84375-.84375zm0 0" fill="#212121"/><path d="m4.546875 1.925781c-.539063 0-.972656.4375-.972656.976563v15.460937c0 .539063.433593.972657.972656.972657h12.28125c.539063 0 .972656-.433594.972656-.972657v-11.382812c0-.015625-.007812-.035157-.019531-.046875l-4.988281-4.988282c-.011719-.011718-.027344-.019531-.046875-.019531zm0 .128907h8.175781l4.949219 4.953124v11.355469c0 .46875-.375.84375-.84375.84375h-12.28125c-.46875 0-.84375-.375-.84375-.84375v-15.460937c0-.472656.375-.847656.84375-.847656zm0 0" fill="#212121"/><g stroke="#212121" stroke-linecap="round" stroke-linejoin="round" stroke-width="3"><path d="m164.075258-31.108475h169.256564c2.999714 0 5.363125 2.363411 5.363125 5.272224v10.635348c0 2.908813-2.363411 5.272224-5.363125 5.272224h-169.256564c-2.999713 0-5.363124-2.363411-5.363124-5.272224v-10.635348c0-2.908813 2.363411-5.272224 5.363124-5.272224zm0 0" fill="url(#l)" transform="matrix(.0429729 0 0 .0429729 -.000001 9.239164)"/><path d="m164.075258 11.251116h169.256564c2.999714 0 5.363125 2.363411 5.363125 5.272224v10.635348c0 2.908813-2.363411 5.272224-5.363125 5.272224h-169.256564c-2.999713 0-5.363124-2.363411-5.363124-5.272224v-10.635348c0-2.908813 2.363411-5.272224 5.363124-5.272224zm0 0" fill="url(#l)" transform="matrix(.0429729 0 0 .0429729 -.000001 9.239164)"/><path d="m164.075258 53.610708h95.17273c2.999713 0 5.363124 2.36341 5.363124 5.272223v10.544448c0 2.908813-2.363411 5.363124-5.363124 5.363124h-95.17273c-2.999713 0-5.363124-2.454311-5.363124-5.363124v-10.544448c0-2.908813 2.363411-5.272223 5.363124-5.272223zm0 0" fill="url(#l)" transform="matrix(.0429729 0 0 .0429729 -.000001 9.239164)"/><path d="m164.075258 95.879398h95.17273c2.999713 0 5.363124 2.363411 5.363124 5.363125v10.544447c0 2.908813-2.363411 5.272224-5.363124 5.272224h-95.17273c-2.999713 0-5.363124-2.363411-5.363124-5.272224v-10.544447c0-2.999714 2.363411-5.363125 5.363124-5.363125zm0 0" fill="url(#l)" transform="matrix(.0429729 0 0 .0429729 -.000001 9.239164)"/><path d="m285.79089 55.33782c-2.454311 0-4.45412 1.999809-4.45412 4.45412v52.813139c0 3.363315 3.636016 5.454025 6.54483 3.817817l48.449918-26.361119c2.999714-1.727108 2.999714-6.090327 0-7.726535l-48.449918-26.452019c-.636303-.363602-1.363507-.545403-2.09071-.545403zm0 0" fill="url(#m)" fill-rule="evenodd" transform="matrix(.0429729 0 0 .0429729 0 9.239163)"/></g></svg>

<?xml version="1.0" encoding="UTF-8"?>
<svg xmlns="http://www.w3.org/2000/svg" xmlns:xlink="http://www.w3.org/1999/xlink" width="22pt" height="22pt" viewBox="0 0 22 22" version="1.1">
<defs>
<linearGradient id="linear0" gradientUnits="userSpaceOnUse" x1="254" y1="233.5" x2="254" y2="254.66667" gradientTransform="matrix(0.0429729,0,0,0.0429729,0.454795,9.239163)">
<stop offset="0" style="stop-color:rgb(0%,0%,0%);stop-opacity:0.27451;"/>
<stop offset="1" style="stop-color:rgb(0%,0%,0%);stop-opacity:0;"/>
</linearGradient>
<radialGradient id="radial0" gradientUnits="userSpaceOnUse" cx="450.90894" cy="189.57936" fx="450.90894" fy="189.57936" r="21.166656" gradientTransform="matrix(0.000000119742,-0.0537161,-0.0966889,-0.0000000698078,34.020641,43.721792)">
<stop offset="0" style="stop-color:rgb(0%,0%,0%);stop-opacity:0.313725;"/>
<stop offset="0.222222" style="stop-color:rgb(0%,0%,0%);stop-opacity:0.27451;"/>
<stop offset="1" style="stop-color:rgb(0%,0%,0%);stop-opacity:0;"/>
</radialGradient>
<radialGradient id="radial1" gradientUnits="userSpaceOnUse" cx="450.90894" cy="189.57936" fx="450.90894" fy="189.57936" r="21.166656" gradientTransform="matrix(-0.000000119742,0.0537161,0.0966889,0.0000000698078,-12.645223,-5.175142)">
<stop offset="0" style="stop-color:rgb(0%,0%,0%);stop-opacity:0.313725;"/>
<stop offset="0.222222" style="stop-color:rgb(0%,0%,0%);stop-opacity:0.27451;"/>
<stop offset="1" style="stop-color:rgb(0%,0%,0%);stop-opacity:0;"/>
</radialGradient>
<radialGradient id="radial2" gradientUnits="userSpaceOnUse" cx="450.90894" cy="189.57936" fx="450.90894" fy="189.57936" r="21.166656" gradientTransform="matrix(-0.000000119742,-0.0537161,0.0966889,-0.0000000698078,-12.645223,43.721792)">
<stop offset="0" style="stop-color:rgb(0%,0%,0%);stop-opacity:0.313725;"/>
<stop offset="0.222222" style="stop-color:rgb(0%,0%,0%);stop-opacity:0.27451;"/>
<stop offset="1" style="stop-color:rgb(0%,0%,0%);stop-opacity:0;"/>
</radialGradient>
<radialGradient id="radial3" gradientUnits="userSpaceOnUse" cx="450.90894" cy="189.57936" fx="450.90894" fy="189.57936" r="21.166656" gradientTransform="matrix(0.000000119742,0.0537161,-0.0966889,0.0000000698078,34.020639,-5.175143)">
<stop offset="0" style="stop-color:rgb(0%,0%,0%);stop-opacity:0.313725;"/>
<stop offset="0.222222" style="stop-color:rgb(0%,0%,0%);stop-opacity:0.27451;"/>
<stop offset="1" style="stop-color:rgb(0%,0%,0%);stop-opacity:0;"/>
</radialGradient>
<linearGradient id="linear1" gradientUnits="userSpaceOnUse" x1="940" y1="1695.1182" x2="940" y2="175.11812" gradientTransform="matrix(0.0113699,0,0,0.0113699,0,0)">
<stop offset="0" style="stop-color:rgb(69.019608%,74.509804%,77.254902%);stop-opacity:1;"/>
<stop offset="1" style="stop-color:rgb(81.176471%,84.705882%,86.27451%);stop-opacity:1;"/>
</linearGradient>
<linearGradient id="linear2" gradientUnits="userSpaceOnUse" x1="249.18942" y1="233.5" x2="249.18942" y2="254.66669" gradientTransform="matrix(0.0205522,0,0,0.0752024,10.341666,-11.361824)">
<stop offset="0" style="stop-color:rgb(0%,0%,0%);stop-opacity:0.27451;"/>
<stop offset="1" style="stop-color:rgb(0%,0%,0%);stop-opacity:0;"/>
</linearGradient>
<linearGradient id="linear3" gradientUnits="userSpaceOnUse" x1="338.66666" y1="233.5" x2="338.66666" y2="-168.66667" gradientTransform="matrix(0.0429729,0,0,0.0429729,0,9.239163)">
<stop offset="0" style="stop-color:rgb(47.058824%,56.470588%,61.176471%);stop-opacity:1;"/>
<stop offset="1" style="stop-color:rgb(56.470588%,64.313725%,68.235294%);stop-opacity:1;"/>
</linearGradient>
<linearGradient id="linear4" gradientUnits="userSpaceOnUse" x1="254" y1="233.5" x2="254" y2="-168.66667" >
<stop offset="0" style="stop-color:rgb(47.058824%,56.470588%,61.176471%);stop-opacity:1;"/>
<stop offset="1" style="stop-color:rgb(56.470588%,64.313725%,68.235294%);stop-opacity:1;"/>
</linearGradient>
<linearGradient id="linear5" gradientUnits="userSpaceOnUse" x1="254" y1="233.5" x2="254" y2="-168.66667" >
<stop offset="0" style="stop-color:rgb(47.058824%,56.470588%,61.176471%);stop-opacity:1;"/>
<stop offset="1" style="stop-color:rgb(56.470588%,64.313725%,68.235294%);stop-opacity:1;"/>
</linearGradient>
<linearGradient id="linear6" gradientUnits="userSpaceOnUse" x1="254" y1="233.5" x2="254" y2="-168.66667" >
<stop offset="0" style="stop-color:rgb(47.058824%,56.470588%,61.176471%);stop-opacity:1;"/>
<stop offset="1" style="stop-color:rgb(56.470588%,64.313725%,68.235294%);stop-opacity:1;"/>
</linearGradient>
<linearGradient id="linear7" gradientUnits="userSpaceOnUse" x1="254" y1="233.5" x2="254" y2="-168.66667" >
<stop offset="0" style="stop-color:rgb(47.058824%,56.470588%,61.176471%);stop-opacity:1;"/>
<stop offset="1" style="stop-color:rgb(56.470588%,64.313725%,68.235294%);stop-opacity:1;"/>
</linearGradient>
<linearGradient id="linear8" gradientUnits="userSpaceOnUse" x1="248.70117" y1="222.92317" x2="248.70117" y2="-179.2435" gradientTransform="matrix(0.416051,0,0,0.416051,202.09207,72.680175)">
<stop offset="0" style="stop-color:rgb(47.058824%,56.470588%,61.176471%);stop-opacity:1;"/>
<stop offset="1" style="stop-color:rgb(56.470588%,64.313725%,68.235294%);stop-opacity:1;"/>
</linearGradient>
</defs>
<g id="surface1">
<path style=" stroke:none;fill-rule:nonzero;fill:url(#linear0);" d="M 5.457031 19.273438 L 15.917969 19.273438 L 15.917969 20.183594 L 5.457031 20.183594 Z M 5.457031 19.273438 "/>
<path style=" stroke:none;fill-rule:nonzero;fill:url(#radial0);" d="M 15.917969 19.273438 L 17.738281 19.273438 L 17.738281 18.363281 L 15.917969 18.363281 Z M 15.917969 19.273438 "/>
<path style=" stroke:none;fill-rule:nonzero;fill:url(#radial1);" d="M 5.457031 19.273438 L 3.636719 19.273438 L 3.636719 20.183594 L 5.457031 20.183594 Z M 5.457031 19.273438 "/>
<path style=" stroke:none;fill-rule:nonzero;fill:url(#radial2);" d="M 5.457031 19.273438 L 3.636719 19.273438 L 3.636719 18.363281 L 5.457031 18.363281 Z M 5.457031 19.273438 "/>
<path style=" stroke:none;fill-rule:nonzero;fill:url(#radial3);" d="M 15.917969 19.273438 L 17.738281 19.273438 L 17.738281 20.183594 L 15.917969 20.183594 Z M 15.917969 19.273438 "/>
<path style=" stroke:none;fill-rule:nonzero;fill:url(#linear1);" d="M 12.746094 1.992188 L 4.546875 1.992188 C 4.042969 1.992188 3.636719 2.398438 3.636719 2.902344 L 3.636719 18.363281 C 3.636719 18.867188 4.042969 19.273438 4.546875 19.273438 L 16.828125 19.273438 C 17.332031 19.273438 17.738281 18.867188 17.738281 18.363281 L 17.738281 6.980469 Z M 12.746094 1.992188 "/>
<path style=" stroke:none;fill-rule:nonzero;fill:rgb(0%,0%,0%);fill-opacity:0.235294;" d="M 3.636719 18.011719 L 3.636719 18.363281 C 3.636719 18.867188 4.042969 19.273438 4.546875 19.273438 L 16.828125 19.273438 C 17.332031 19.273438 17.738281 18.867188 17.738281 18.363281 L 17.738281 18.011719 C 17.738281 18.515625 17.332031 18.921875 16.828125 18.921875 L 4.546875 18.921875 C 4.042969 18.921875 3.636719 18.515625 3.636719 18.011719 Z M 3.636719 18.011719 "/>
<path style=" stroke:none;fill-rule:nonzero;fill:url(#linear2);" d="M 12.734375 6.199219 L 17.054688 6.199219 L 17.738281 6.878906 L 17.738281 7.789062 L 12.734375 7.789062 Z M 12.734375 6.199219 "/>
<path style=" stroke:none;fill-rule:nonzero;fill:rgb(100%,100%,100%);fill-opacity:0.392157;" d="M 4.546875 1.992188 C 4.042969 1.992188 3.636719 2.398438 3.636719 2.902344 L 3.636719 3.242188 C 3.636719 2.738281 4.042969 2.332031 4.546875 2.332031 L 12.746094 2.332031 L 17.738281 7.320312 L 17.738281 6.980469 L 12.746094 1.992188 Z M 4.546875 1.992188 "/>
<path style=" stroke:none;fill-rule:nonzero;fill:url(#linear3);" d="M 17.738281 6.980469 L 12.746094 1.992188 L 12.746094 6.070312 C 12.746094 6.574219 13.152344 6.980469 13.65625 6.980469 Z M 17.738281 6.980469 "/>
<path style=" stroke:none;fill-rule:nonzero;fill:rgb(0%,0%,0%);fill-opacity:0.235294;" d="M 12.746094 5.855469 L 12.746094 6.070312 C 12.746094 6.574219 13.152344 6.980469 13.65625 6.980469 L 17.738281 6.980469 L 17.523438 6.765625 L 13.65625 6.765625 C 13.152344 6.765625 12.746094 6.359375 12.746094 5.855469 Z M 12.746094 5.855469 "/>
<path style=" stroke:none;fill-rule:nonzero;fill:rgb(100%,100%,100%);fill-opacity:0.392157;" d="M 12.746094 1.992188 L 12.746094 2.332031 L 17.394531 6.980469 L 17.738281 6.980469 Z M 12.746094 1.992188 "/>
<path style=" stroke:none;fill-rule:nonzero;fill:rgb(12.941176%,12.941176%,12.941176%);fill-opacity:1;" d="M 12.746094 1.925781 C 12.710938 1.925781 12.683594 1.957031 12.683594 1.992188 L 12.683594 6.070312 C 12.683594 6.609375 13.117188 7.042969 13.65625 7.042969 L 17.738281 7.042969 C 17.761719 7.042969 17.785156 7.027344 17.796875 7.003906 C 17.804688 6.980469 17.800781 6.953125 17.78125 6.933594 L 12.792969 1.945312 C 12.78125 1.933594 12.765625 1.925781 12.746094 1.925781 Z M 12.8125 2.148438 L 17.582031 6.914062 L 13.65625 6.914062 C 13.1875 6.914062 12.8125 6.539062 12.8125 6.070312 Z M 12.8125 2.148438 "/>
<path style=" stroke:none;fill-rule:nonzero;fill:rgb(12.941176%,12.941176%,12.941176%);fill-opacity:1;" d="M 4.546875 1.925781 C 4.007812 1.925781 3.574219 2.363281 3.574219 2.902344 L 3.574219 18.363281 C 3.574219 18.902344 4.007812 19.335938 4.546875 19.335938 L 16.828125 19.335938 C 17.367188 19.335938 17.800781 18.902344 17.800781 18.363281 L 17.800781 6.980469 C 17.800781 6.964844 17.792969 6.945312 17.78125 6.933594 L 12.792969 1.945312 C 12.78125 1.933594 12.765625 1.925781 12.746094 1.925781 Z M 4.546875 2.054688 L 12.722656 2.054688 L 17.671875 7.007812 L 17.671875 18.363281 C 17.671875 18.832031 17.296875 19.207031 16.828125 19.207031 L 4.546875 19.207031 C 4.078125 19.207031 3.703125 18.832031 3.703125 18.363281 L 3.703125 2.902344 C 3.703125 2.429688 4.078125 2.054688 4.546875 2.054688 Z M 4.546875 2.054688 "/>
<path style="fill-rule:nonzero;fill:url(#linear4);stroke-width:3;stroke-linecap:round;stroke-linejoin:round;stroke:rgb(12.941176%,12.941176%,12.941176%);stroke-opacity:1;stroke-miterlimit:4;" d="M 164.075258 -31.108475 L 333.331822 -31.108475 C 336.331536 -31.108475 338.694947 -28.745064 338.694947 -25.836251 L 338.694947 -15.200903 C 338.694947 -12.29209 336.331536 -9.928679 333.331822 -9.928679 L 164.075258 -9.928679 C 161.075545 -9.928679 158.712134 -12.29209 158.712134 -15.200903 L 158.712134 -25.836251 C 158.712134 -28.745064 161.075545 -31.108475 164.075258 -31.108475 Z M 164.075258 -31.108475 " transform="matrix(0.0429729,0,0,0.0429729,-0.000000755958,9.239164)"/>
<path style="fill-rule:nonzero;fill:url(#linear5);stroke-width:3;stroke-linecap:round;stroke-linejoin:round;stroke:rgb(12.941176%,12.941176%,12.941176%);stroke-opacity:1;stroke-miterlimit:4;" d="M 164.075258 11.251116 L 333.331822 11.251116 C 336.331536 11.251116 338.694947 13.614527 338.694947 16.52334 L 338.694947 27.158688 C 338.694947 30.067501 336.331536 32.430912 333.331822 32.430912 L 164.075258 32.430912 C 161.075545 32.430912 158.712134 30.067501 158.712134 27.158688 L 158.712134 16.52334 C 158.712134 13.614527 161.075545 11.251116 164.075258 11.251116 Z M 164.075258 11.251116 " transform="matrix(0.0429729,0,0,0.0429729,-0.000000755958,9.239164)"/>
<path style="fill-rule:nonzero;fill:url(#linear6);stroke-width:3;stroke-linecap:round;stroke-linejoin:round;stroke:rgb(12.941176%,12.941176%,12.941176%);stroke-opacity:1;stroke-miterlimit:4;" d="M 164.075258 53.610708 L 259.247988 53.610708 C 262.247701 53.610708 264.611112 55.974118 264.611112 58.882931 L 264.611112 69.427379 C 264.611112 72.336192 262.247701 74.790503 259.247988 74.790503 L 164.075258 74.790503 C 161.075545 74.790503 158.712134 72.336192 158.712134 69.427379 L 158.712134 58.882931 C 158.712134 55.974118 161.075545 53.610708 164.075258 53.610708 Z M 164.075258 53.610708 " transform="matrix(0.0429729,0,0,0.0429729,-0.000000755958,9.239164)"/>
<path style="fill-rule:nonzero;fill:url(#linear7);stroke-width:3;stroke-linecap:round;stroke-linejoin:round;stroke:rgb(12.941176%,12.941176%,12.941176%);stroke-opacity:1;stroke-miterlimit:4;" d="M 164.075258 95.879398 L 259.247988 95.879398 C 262.247701 95.879398 264.611112 98.242809 264.611112 101.242523 L 264.611112 111.78697 C 264.611112 114.695783 262.247701 117.059194 259.247988 117.059194 L 164.075258 117.059194 C 161.075545 117.059194 158.712134 114.695783 158.712134 111.78697 L 158.712134 101.242523 C 158.712134 98.242809 161.075545 95.879398 164.075258 95.879398 Z M 164.075258 95.879398 " transform="matrix(0.0429729,0,0,0.0429729,-0.000000755958,9.239164)"/>
<path style="fill-rule:evenodd;fill:url(#linear8);stroke-width:3;stroke-linecap:round;stroke-linejoin:round;stroke:rgb(12.941176%,12.941176%,12.941176%);stroke-opacity:1;stroke-miterlimit:4;" d="M 285.79089 55.33782 C 283.336579 55.33782 281.33677 57.337629 281.33677 59.79194 L 281.33677 112.605079 C 281.33677 115.968394 284.972786 118.059104 287.8816 116.422896 L 336.331518 90.061777 C 339.331232 88.334669 339.331232 83.97145 336.331518 82.335242 L 287.8816 55.883223 C 287.245297 55.519621 286.518093 55.33782 285.79089 55.33782 Z M 285.79089 55.33782 " transform="matrix(0.0429729,0,0,0.0429729,0,9.239163)"/>
</g>
</svg>
